dist/img/8.svg

<svg version="1.1" xmlns="http://www.w3.org/2000/svg" xmlns:xlink="http://www.w3.org/1999/xlink" x="0px" y="0px" width="512px" height="512px"><path d="M459.6813965,22.5419483L54.5490189,22.5645809C27.1046829,22.5645809,4.3249741,50.2580032,0,86.556076v346.1564941c6.3176284,32.6977234,27.8292866,56.7681274,53.439476,56.7681274h405.1210327c25.610199,0,47.1445007-24.0704041,53.4394836-56.7681274V74.237854C504.5501709,44.1668282,483.9329224,22.5419483,459.6813965,22.5419483z M462.4326172,398.5316772c-5.0722351,26.3800659-22.4400635,45.7971497-43.0912476,45.7971497H92.6359711c-20.6511917,0-37.9963722-19.4057922-43.0912361-45.7858276V119.3670578c3.4871483-29.2784958,21.8513145-51.6279526,43.9969902-51.6279526h326.7054138c19.5643005,0,36.1622314,17.4357452,42.1855164,41.6873016L462.4326172,398.5316772z M94.968277,394.5576477h144.128067v-63.0630798h-81.087616V180.5959778h81.087616v-63.0630951H94.9456253L94.968277,394.5576477z M272.8809814,180.5733337h81.0875854v150.8985901h-81.0875854v63.0631104h144.1506958V117.510231H272.8809204L272.8809814,180.5733337z"/></svg>

<svg xmlns="http://www.w3.org/2000/svg" width="512" height="512"><path d="M459.681 22.542l-405.132.023C27.105 22.565 4.325 50.258 0 86.556v346.157c6.318 32.697 27.83 56.768 53.44 56.768h405.12c25.61 0 47.145-24.07 53.44-56.768V74.238c-7.45-30.071-28.067-51.696-52.319-51.696zm2.752 375.99c-5.073 26.38-22.44 45.797-43.092 45.797H92.636c-20.651 0-37.996-19.406-43.091-45.786V119.367C53.032 90.09 71.396 67.74 93.542 67.74h326.705c19.564 0 36.162 17.436 42.186 41.687v289.106zm-367.465-3.974h144.128v-63.063H158.01V180.596h81.087v-63.063H94.946l.022 277.025zm177.913-213.985h81.088v150.899H272.88v63.063h144.15V117.51H272.88v63.063z"/></svg>
